X: 4009
T: HUNTINGTOWER
R: Strathspey.
%R: strathspey
B: James Kerr "Merry Melodies" v.4 p.04 #9
Z: 2016 John Chambers <jc:trillian.mit.edu>
M: C
L: 1/8
K: A
|:\
A<A A>B c2 (B<A) | A<A c>e a2 (f<e) |\
f>g a>f e>c B>A | d<f c<e B>c B<A ::\
(ef/g/) a>g f<e c<A | F<B B>c d2 (c<B) |\
(ef/g/) a>g f<e c<A | E<A A>B c2 (B<A) :|

%%sep 1 1 500
%%sep 1 1 500

